svg/300/outlined/add_box-fill.svg

<svg xmlns="http://www.w3.org/2000/svg" width="48" height="48" viewBox="0 -960 960 960"><path d="M457.308-290.001h45.384v-167.307h167.307v-45.384H502.692v-167.307h-45.384v167.307H290.001v45.384h167.307v167.307Zm-259.614 150q-23.529 0-40.611-17.082-17.082-17.082-17.082-40.611v-564.612q0-23.529 17.082-40.611 17.082-17.082 40.611-17.082h564.612q23.529 0 40.611 17.082 17.082 17.082 17.082 40.611v564.612q0 23.529-17.082 40.611-17.082 17.082-40.611 17.082H197.694Z"/></svg>

<svg xmlns="http://www.w3.org/2000/svg" width="48" height="48" viewBox="0 -960 960 960"><path d="M457.31-290h45.38v-167.31H670v-45.38H502.69V-670h-45.38v167.31H290v45.38h167.31V-290ZM197.69-140q-23.53 0-40.61-17.08T140-197.69v-564.62q0-23.53 17.08-40.61T197.69-820h564.62q23.53 0 40.61 17.08T820-762.31v564.62q0 23.53-17.08 40.61T762.31-140H197.69Z"/></svg>
